.local/share/icons/Gruvbox-Plus-Dark/panel/24/google-chrome-no-notification-disabled.svg

<svg width="24" height="24" version="1.1" xmlns="http://www.w3.org/2000/svg">
  <defs>
    <style id="current-color-scheme" type="text/css">.ColorScheme-Text { color:#ebdbb2; } .ColorScheme-Highlight { color:#458588; } .ColorScheme-NeutralText { color:#fe8019; } .ColorScheme-PositiveText { color:#689d6a; } .ColorScheme-NegativeText { color:#fb4934; }</style>
  </defs>
  <path class="ColorScheme-Text" d="m12 4a8 8 0 0 0-5.604 2.293l2.756 4.773a3 3 0 0 1 2.848-2.066h7.412a8 8 0 0 0-7.412-5zm-6.301 3.086a8 8 0 0 0-1.699 4.914 8 8 0 0 0 5.865 7.701l2.752-4.767a3 3 0 0 1-0.617 0.066 3 3 0 0 1-2.594-1.502l-0.0039 2e-3 -3.703-6.414zm6.301 2.914a2 2 0 0 0-2 2 2 2 0 0 0 2 2 2 2 0 0 0 2-2 2 2 0 0 0-2-2zm2.23 0a3 3 0 0 1 0.77 2 3 3 0 0 1-0.404 1.498l2e-3 2e-3 -3.704 6.414a8 8 0 0 0 1.106 0.086 8 8 0 0 0 8-8 8 8 0 0 0-0.26-2h-5.51z" fill="currentColor" opacity=".3"/>
</svg>

<svg xmlns="http://www.w3.org/2000/svg" width="24" height="24" version="1.1">
 <defs>
  <style id="current-color-scheme" type="text/css">
   .ColorScheme-Text { color:#ebdbb2; } .ColorScheme-Highlight { color:#458588; }
  </style>
 </defs>
 <g>
  <path style="opacity:0.3;fill:currentColor" class="ColorScheme-Text" d="M 12,4 A 8,8 0 0 0 6.3965,6.293 l 2.7558,4.773 A 3,3 0 0 1 12,9 l 7.412,0 A 8,8 0 0 0 12,4 Z M 5.6992,7.0859 A 8,8 0 0 0 4,12 8,8 0 0 0 9.8652,19.701 L 12.617,14.934 A 3,3 0 0 1 12,15 3,3 0 0 1 9.4062,13.498 L 9.4023,13.5 5.6992,7.0859 Z M 12,10 a 2,2 0 0 0 -2,2 2,2 0 0 0 2,2 2,2 0 0 0 2,-2 2,2 0 0 0 -2,-2 z m 2.23,0 a 3,3 0 0 1 0.77,2 3,3 0 0 1 -0.404,1.498 l 0.002,0.002 -3.7035,6.414 A 8,8 0 0 0 12,20 8,8 0 0 0 20,12 8,8 0 0 0 19.74,10 l -5.51,0 z"/>
 </g>
</svg>
